polaris-icons/icons/newicons/DockSideMajor.svg

<svg width="20" height="20" viewBox="0 0 20 20" fill="none" xmlns="http://www.w3.org/2000/svg">
<path fill-rule="evenodd" clip-rule="evenodd" d="M9 7C9 6.44772 9.44772 6 10 6H13C13.5523 6 14 6.44772 14 7V13C14 13.5523 13.5523 14 13 14H10C9.44772 14 9 13.5523 9 13V7ZM10.5 12.5V7.5H12.5V12.5H10.5Z" fill="black"/>
<path fill-rule="evenodd" clip-rule="evenodd" d="M3 6C3 4.34315 4.34315 3 6 3H14C15.6569 3 17 4.34315 17 6V14C17 15.6569 15.6569 17 14 17H6C4.34315 17 3 15.6569 3 14V6ZM6 4.5H14C14.8284 4.5 15.5 5.17157 15.5 6V14C15.5 14.8284 14.8284 15.5 14 15.5H6C5.17157 15.5 4.5 14.8284 4.5 14V6C4.5 5.17157 5.17157 4.5 6 4.5Z" fill="black"/>
</svg>

<svg viewBox="0 0 20 20" fill="none" xmlns="http://www.w3.org/2000/svg"><path fill-rule="evenodd" clip-rule="evenodd" d="M9 7a1 1 0 0 1 1-1h3a1 1 0 0 1 1 1v6a1 1 0 0 1-1 1h-3a1 1 0 0 1-1-1v-6Zm1.5 5.5v-5h2v5h-2Z" fill="#000"/><path fill-rule="evenodd" clip-rule="evenodd" d="M3 6a3 3 0 0 1 3-3h8a3 3 0 0 1 3 3v8a3 3 0 0 1-3 3h-8a3 3 0 0 1-3-3v-8Zm3-1.5h8a1.5 1.5 0 0 1 1.5 1.5v8a1.5 1.5 0 0 1-1.5 1.5h-8a1.5 1.5 0 0 1-1.5-1.5v-8a1.5 1.5 0 0 1 1.5-1.5Z" fill="#000"/></svg>
